src/assets/images/IconEmailRequired.svg

<svg width="30" height="30" fill="none" xmlns="http://www.w3.org/2000/svg"><path d="M13.5 24h3v-3h-3v3zM15 0C6.72 0 0 6.72 0 15c0 8.28 6.72 15 15 15 8.28 0 15-6.72 15-15 0-8.28-6.72-15-15-15zm0 27C8.385 27 3 21.615 3 15S8.385 3 15 3s12 5.385 12 12-5.385 12-12 12zm0-21c-3.315 0-6 2.685-6 6h3c0-1.65 1.35-3 3-3s3 1.35 3 3c0 3-4.5 2.625-4.5 7.5h3c0-3.375 4.5-3.75 4.5-7.5 0-3.315-2.685-6-6-6z" fill="#CD5454"/></svg>

<svg width="30" height="30" viewBox="0 0 30 30" fill="none" xmlns="http://www.w3.org/2000/svg">
<path d="M13.5 24H16.5V21H13.5V24ZM15 0C6.72 0 0 6.72 0 15C0 23.28 6.72 30 15 30C23.28 30 30 23.28 30 15C30 6.72 23.28 0 15 0ZM15 27C8.385 27 3 21.615 3 15C3 8.385 8.385 3 15 3C21.615 3 27 8.385 27 15C27 21.615 21.615 27 15 27ZM15 6C11.685 6 9 8.685 9 12H12C12 10.35 13.35 9 15 9C16.65 9 18 10.35 18 12C18 15 13.5 14.625 13.5 19.5H16.5C16.5 16.125 21 15.75 21 12C21 8.685 18.315 6 15 6Z" fill="#CD5454"/>
</svg>
